Kaze-dark-colors/24x24/status/update-low.svg

<?xml version="1.0" encoding="UTF-8" standalone="no"?>
<svg xmlns:inkscape="http://www.inkscape.org/namespaces/inkscape" xmlns:sodipodi="http://sodipodi.sourceforge.net/DTD/sodipodi-0.dtd" xmlns="http://www.w3.org/2000/svg" xmlns:svg="http://www.w3.org/2000/svg" width="24" height="24" viewBox="0 0 24 24" fill="none" version="1.1" id="svg3" sodipodi:docname="update-low.svg" inkscape:version="1.4 (e7c3feb100, 2024-10-09)">
   <defs id="defs1">
      <style id="current-color-scheme" type="text/css">
         .ColorScheme-Text { color:#e6f0f5; }
         .ColorScheme-Highlight { color:#2179cb; }
         .ColorScheme-Background { color:#e4e4e4; }
      </style>
   </defs>
   <defs id="defs3"/>
   <sodipodi:namedview id="namedview3" pagecolor="#ffffff" bordercolor="#ffffff" borderopacity="0.25" inkscape:showpageshadow="2" inkscape:pageopacity="0.0" inkscape:pagecheckerboard="0" inkscape:deskcolor="#d1d1d1" inkscape:zoom="30.958333" inkscape:cx="11.983849" inkscape:cy="12" inkscape:window-width="1920" inkscape:window-height="952" inkscape:window-x="0" inkscape:window-y="0" inkscape:window-maximized="1" inkscape:current-layer="svg3"/>
   <path id="path3" d="m 4,12 c 0,-4.41828 3.58172,-8 8,-8 4.4183,0 8,3.58172 8,8 0,1.0609 -0.2065,2.0736 -0.5815,3 M 4.64957,15.1629 C 5.87552,18.0081 8.70515,20 12,20 c 1.0609,0 2.0736,-0.2065 3,-0.5815 M 4,18 v -3 h 3 m 5,-7 3,4.3787 h -1.7586 v 1.8915 c 0,0.9522 -0.7719,1.7241 -1.7242,1.7241 -0.4761,0 -0.862,-0.3859 -0.862,-0.862 V 12.3787 H 9 Z" style="stroke:#ffffff;stroke-opacity:1;stroke-width:1.2;stroke-dasharray:none;stroke-linejoin:round;stroke-linecap:round"/>
   <circle cx="18" cy="18" r="2" fill="#ffffff" id="circle3"/>
   <path id="path3" d="m 4,12 c 0,-4.41828 3.58172,-8 8,-8 4.4183,0 8,3.58172 8,8 0,1.0609 -0.2065,2.0736 -0.5815,3 M 4.64957,15.1629 C 5.87552,18.0081 8.70515,20 12,20 c 1.0609,0 2.0736,-0.2065 3,-0.5815 M 4,18 v -3 h 3 m 5,-7 3,4.3787 h -1.7586 v 1.8915 c 0,0.9522 -0.7719,1.7241 -1.7242,1.7241 -0.4761,0 -0.862,-0.3859 -0.862,-0.862 V 12.3787 H 9 Z" style="stroke:currentColor;opacity:0.5;stroke-width:1.2;stroke-dasharray:none;stroke-linejoin:round;stroke-linecap:round" class="ColorScheme-Highlight"/>
   <circle cx="18" cy="18" r="2" style="fill:currentColor;opacity:0.5" class="ColorScheme-Highlight" id="circle3"/>
</svg>

<svg width="24" height="24" viewBox="0 0 24 24" fill="none" xmlns="http://www.w3.org/2000/svg">
<path d="M12 8L15 12.3787H13.2414V14.2702C13.2414 15.2224 12.4695 15.9943 11.5172 15.9943C11.0411 15.9943 10.6552 15.6084 10.6552 15.1323V12.3787H9L12 8Z" stroke="#DDDDDD" stroke-width="1.2" stroke-linejoin="round"/>
<path d="M4 18V15H7" stroke="#DDDDDD" stroke-width="1.2" stroke-linecap="round" stroke-linejoin="round"/>
<path d="M4 12C4 7.58172 7.58172 4 12 4C16.4183 4 20 7.58172 20 12C20 13.0609 19.7935 14.0736 19.4185 15M4.64957 15.1629C5.87552 18.0081 8.70515 20 12 20C13.0609 20 14.0736 19.7935 15 19.4185" stroke="#DDDDDD" stroke-width="1.2" stroke-linecap="round"/>
<path d="M18 20C19.1046 20 20 19.1046 20 18C20 16.8954 19.1046 16 18 16C16.8954 16 16 16.8954 16 18C16 19.1046 16.8954 20 18 20Z" fill="#DDDDDD"/>
</svg>
